!!!!SEGMENT: pl-kk--kk-i-358--002_maxylewicz-wincenty--rorate-caeli.krn
!!!cenid: 17xx:2048
!!!COM: Maxylewicz, Wincenty
!!!COM-rismID: pe30105799
!!!CDT: ~1685-1745/01/24
!!!CNT: Polish
!!!OTL: Rorate caeli
!!!PDT:
!!!AGN: Sacred
!!!SMS-siglum: PL-Kk
!!!SMS-shelfmark: Kk.I.358
!!!SMS-shelfwork: 002 W
!!!SMS-variant:
!!!SMS-altvar:
!!!NIFC-rismSourceID: 1001144497
!!!NIFC-rismChildID: 1001144497
!!!NIFC-islandoraID:
!!!URL-pdf-islandora:
!!!URL-scan:
!!!ONB-nifc: UWAGA: utwory w zbiorze: 1. Rorate caeli (od skanu 0001), 2. Rorate caeli (od skanu 0011)
!!!AIN: 1 alto 2 empty 1 tenor 1 vox
!!!key:
**kern	**text	**kern	**fba	**text	**kern	**text	**kern	**text	**dynam	**kern	**text
*part5	*part5	*part4	*	*part4	*part3	*part3	*part2	*part2	*part2	*part1	*part1
*group2	*	*group1	*	*	*group1	*	*group1	*	*	*group1	*
*staff5	*staff5	*staff4	*	*staff4	*staff3	*staff3	*staff2	*staff2	*	*staff1	*staff1
*Iempty	*	*Iempty	*	*	*Itenor	*	*Ialto	*	*	*Ivox	*
*I"Baſso Ripieno.	*	*I"Basſo.	*	*	*I"Tenore	*	*I"Alto.	*	*	*I"Canto.	*
*I'B rip	*	*I'B	*	*	*I'T	*	*I'A	*	*	*I'S	*
*>[A,B,C,A]	*	*>[A,B,C,A]	*	*	*>[A,B,C,A]	*	*>[A,B,C,A]	*	*	*>[A,B,C,A]	*
*>A	*	*>A	*	*	*>A	*	*>A	*	*	*>A	*
*clefF4	*	*clefF4	*	*	*clefC4	*	*clefC3	*	*	*clefC1	*
*k[]	*	*k[]	*	*	*k[]	*	*k[]	*	*	*k[]	*
*C:	*	*C:	*	*	*C:	*	*C:	*	*	*C:	*
*M2/2	*	*M2/2	*	*	*M2/2	*	*M2/2	*	*	*M2/2	*
*met(c|)	*	*met(c|)	*	*	*met(c|)	*	*met(c|)	*	*	*met(c|)	*
=1	=1	=1	=1	=1	=1	=1	=1	=1	=1	=1	=1
!LO:TX:a:t=à Capella	!	!	!	!	!LO:TX:a:t=1	!	!	!	!	!LO:TX:a:t=5	!
0r	.	0r	.	.	1rA	.	2r	.	.	00r	.
!	!	!	!	!	!	!	!	!	!LO:DY:a:t=Forte	!	!
.	.	.	.	.	.	.	2c/	Ro-	f	.	.
=2	=2	=2	=2	=2	=2	=2	=2	=2	=2	=2	=2
*	*	*	*	*	*	*	*2\right	*	*	*	*
.	.	.	.	.	2rF	.	2.g\	-ra-	.	.	.
.	.	.	.	.	2G/	Ro-	.	.	.	.	.
.	.	.	.	.	.	.	4f\	.	.	.	.
=3	=3	=3	=3	=3	=3	=3	=3	=3	=3	=3	=3
*	*	*	*	*	*2\right	*	*	*	*	*	*
!	!	!	!	!	!	!	!LO:TX:t=P:global:problem=rozdzielacz słów	!	!	!	!
1r	.	1rD	.	.	2.c\	-ra-	2e,<\	-te	.	.	.
.	.	.	.	.	.	.	4g\	Cae-	.	.	.
.	.	.	.	.	4B\	.	4g\	-li	.	.	.
=4	=4	=4	=4	=4	=4	=4	=4	=4	=4	=4	=4
!	!	!	!	!	!LO:TX:t=P:global:problem=rozdzielacz słów	!	!	!	!	!	!
2rC	.	2rBB	.	.	2A,</	-te	2f\	de-	.	.	.
2C/	Ro-	2C/	.	Ro-	4c\	cae-	2e\	.	.	.	.
.	.	.	.	.	4c\	-li	.	.	.	.	.
=5	=5	=5	=5	=5	=5	=5	=5	=5	=5	=5	=5
*2\right	*	*2\right	*	*	*	*	*	*	*	*	*
2.G\	-ra-	(2.G\	.	-ra-	4.c\	de-	[1d	.	.	1rg	.
.	.	.	.	.	8c\	-su-	.	.	.	.	.
.	.	.	.	.	2B\	-per	.	.	.	.	.
4F\	.	4F\)	.	.	.	.	.	.	.	.	.
=6	=6	=6	=6	=6	=6	=6	=6	=6	=6	=6	=6
!LO:TX:t=P:global:problem=kreska pionowa na różnych liniach [rozdzielacz słów / znak oddechu]	!	!	!	!	!	!	!	!	!	!	!
2E,<\	-te	2E\	.	-te	2.e\	ro-	2d\]	.	.	2g/	Ro-
*	*	*	*	*	*	*	*	*	*	*2\right	*
4A\	Cae-	4A\	.	Cae-	.	.	2c\	.	.	[<2cc\	-ra-
4A\	-li	4A\	.	-li	4f\	.	.	.	.	.	.
=7	=7	=7	=7	=7	=7	=7	=7	=7	=7	=7	=7
2.G\	de-	2.G\	.	de-	2g\	-ra-	2e\	.	.	2cc\]	.
.	.	.	.	.	2G/	-te	2d\	.	.	[<2b\	-te
4GG/	-su-	4G\	.	-su-	.	.	.	.	.	.	.
=8	=8	=8	=8	=8	=8	=8	=8	=8	=8	=8	=8
!	!	!	!	!	!	!	!	!	!	!LO:TX:t=P:global:problem=rozdzielacz słów	!
2C/	-per	2C/	.	-per	2r	.	2.e\	.	.	2b,<\]	.
2rBB	.	2rC	.	.	[<2c\	et	.	.	.	4a\	cae-
.	.	.	.	.	.	.	4e\	-ſu-	.	4g\	-li
=9	=9	=9	=9	=9	=9	=9	=9	=9	=9	=9	=9
!	!	!LO:TX:a:t=1.	!	!	!	!	!	!	!	!	!
1rA	.	1rD	.	.	2c\]	.	1d	-per	.	2f#X/	de-
.	.	.	.	.	[<2B\	nu-	.	.	.	2g/	-[[su-
=10	=10	=10	=10	=10	=10	=10	=10	=10	=10	=10	=10
2rF	.	2r	.	.	2B\]	.	2r	.	.	2.e/	-per]]-
1c	et	[<2c\	.	et	2A/	-bes	2c/	Ro-	.	.	.
.	.	.	.	.	.	.	.	.	.	4f#X/	-su-
!	!	!	!	!	!LO:LB:g=original	!	!	!	!	!	!
=11-	=11	=11	=11	=11	=11	=11	=11	=11	=11	=11	=11
.	.	2c\]	.	.	2G/	plu-	2.g\	-ra-	.	1g	-per
[<2B\	nu-	[<2B\	.	nu-	2G/	-ant	.	.	.	.	.
.	.	.	.	.	.	.	4f\	-te	.	.	.
=12	=12	=12	=12	=12	=12	=12	=12	=12	=12	=12	=12
2B\]	.	2B\]	.	.	2C/	Ju-	1e	Cae-	.	2re	.
4A\	-bes	(4A\	.	-bes	2C/	-stum	.	.	.	[<2cc\	et
4G,<\	.	4G\)	.	.	.	.	.	.	.	.	.
=13	=13	=13	=13	=13	=13	=13	=13	=13	=13	=13	=13
2F#X\	plu-	2F#X\	.	plu-	0r	.	1d	-li	.	2cc\]	.
(4G\	-ant	(4G\	.	-ant	.	.	.	.	.	[2b\	nu-
!	!	!LO:N:acc=-	!	!	!	!	!	!	!	!	!
4Fn\)	.	4Fn\)	.	.	.	.	.	.	.	.	.
!	!	!LO:LB:g=original	!	!	!	!	!LO:LB:g=original	!	!	!	!
=14	=14	=14	=14	=14	=14	=14	=14	=14	=14	=14	=14
*	*ij	*	*	*	*	*	*	*	*	*	*
2E\	plu-	2E\	.	plu-	.	.	2r	.	.	2b\]	.
(4c\	-ant	(4c\	.	-ant	.	.	[2c/	et	.	(4a\	-bes
*	*Xij	*	*	*	*	*	*	*	*	*	*
4B\)	.	4B\)	.	.	.	.	.	.	.	4g\)	.
!	!	!	!	!	!	!	!	!	!	!LO:LB:g=original	!
=15	=15	=15	=15	=15	=15	=15	=15	=15	=15	=15	=15
2A\	Ju-	2A\	.	Ju-	2rF	.	2c/]	.	.	2f#X/	plu-
2G\	-stum	2G\	.	-stum	[2G/	plu-	2B/	.	.	2g/	.
!LO:LB:g=original	!	!	!	!	!	!	!	!	!	!	!
=16	=16	=16	=16	=16	=16	=16	=16	=16	=16	=16	=16
1r	.	1rD	.	.	2G/]	.	4c/	nu-	.	1a	-ant
.	.	.	.	.	.	.	4c/	-bes	.	.	.
.	.	.	.	.	2F/	-ant	4d\	plu-	.	.	.
.	.	.	.	.	.	.	4d\	-ant	.	.	.
=17-	=17	=17	=17	=17	=17	=17	=17	=17	=17	=17	=17
2rBB	.	2rBB	.	.	2F/	Ju-	2G/	Ju-	.	2b\	Ju-
2C/	a-	2C/	.	a-	2E,</	-ſtum	[2c/	.	.	2ee\	.
=18	=18	=18	=18	=18	=18	=18	=18	=18	=18	=18	=18
4G\	-pe-	4G\	.	-pe-	2G/	A-	2c/]	.	.	1dd	-stum
4G\	-ri-	4G\	.	-ri-	.	.	.	.	.	.	.
4G\	-a-	4G\	.	-a-	4d\	-pe-	2B/	-stum	.	.	.
4F\	-tur	4F\	.	-tur	4d\	-ri-	.	.	.	.	.
=19	=19	=19	=19	=19	=19	=19	=19	=19	=19	=19	=19
(2E\	ter-	2E\	.	ter-	4d\	-a-	2.e\	plu-	.	2r	.
.	.	.	.	.	4d\	-tur	.	.	.	.	.
2A\)	.	2A\	.	.	[<2c\	ter-	.	.	.	2cc\	a-
.	.	.	.	.	.	.	4f#X\	-ant	.	.	.
=20	=20	=20	=20	=20	=20	=20	=20	=20	=20	=20	=20
2G\	.	2G\	.	.	2c\]	.	2g\	Ju-	.	4gg\	-pe-
.	.	.	.	.	.	.	.	.	.	4gg\	-ri-
2GG/	.	2GG/	.	.	2B\	-ra	2g\	-stu(m)	.	4gg\	-a-
.	.	.	.	.	.	.	.	.	.	4ff\	-tur
=21	=21	=21	=21	=21	=21	=21	=21	=21	=21	=21	=21
2C/	-ra	2C/	.	-ra	2e\	ter-	2r	.	.	1ee	ter-
2rBB	.	2rBB	.	.	[<2c\	.	2c/	a-	.	.	.
=22	=22	=22	=22	=22	=22	=22	=22	=22	=22	=22	=22
2rBB	.	2rBB	.	.	2c\]	.	4g\	-pe-	.	2dd,<\	-ra
.	.	.	.	.	.	.	4g\	-ri-	.	.	.
2GG/	a-	2GG/	.	a-	2B\	-ra	4g\	-a-	.	2dd\	et
.	.	.	.	.	.	.	4f\	-tur	.	.	.
!	!	!	!	!	!LO:LB:g=original	!	!	!	!	!	!
=23	=23	=23	=23	=23	=23	=23	=23	=23	=23	=23	=23
!	!	!	!	!	!LO:TX:a:t=1.	!	!	!	!	!	!
4C/	-pe-	4C/	.	-pe-	1rA	.	4e\	ter-	.	2.ee\	ger-
4C/	-ri-	4C/	.	-ri-	.	.	4e\	-ra	.	.	.
4C/	-a-	4C/	.	-a-	.	.	[<2g\	et	.	.	.
4BB/	-t(ur)	4BB/	.	-t(ur)	.	.	.	.	.	4dd\	-mi-
=24-	=24	=24	=24	=24	=24	=24	=24	=24	=24	=24	=24
1AA	ter-	1AA	.	ter-	2rF	.	2g\]	.	.	1cc	-net
.	.	.	.	.	[<2c\	et	2f\	.	.	.	.
!	!	!	!	!	!	!	!LO:LB:g=original	!	!	!	!
=25	=25	=25	=25	=25	=25	=25	=25	=25	=25	=25	=25
*	*	*custos:G	*	*	*	*	*	*	*	*	*
2GG,</	-ra	2GG/	.	-ra	2c\]	.	2e\	.	.	2r	.
!	!	!LO:LB:g=original	!	!	!	!	!	!	!	!	!
*	*ij	*	*	*	*	*	*	*	*	*	*
2G\	a-	2G\	.	a-	4.B\	ger-	2d\	.	.	[<2dd\	Sal-
.	.	.	.	.	8B\	-mi-	.	.	.	.	.
=26	=26	=26	=26	=26	=26	=26	=26	=26	=26	=26	=26
4c\	-pe-	4c\	.	-pe-	2E/	-net	4.e\	ger-	.	2dd\]	.
4c\	-ri-	4c\	.	-ri-	.	.	.	.	.	.	.
.	.	.	.	.	.	.	8e\	-mi-	.	.	.
4c\	-a-	4c\	.	-a-	2rF	.	2e\	-net	.	[2cc\	-va-
4B\	-tur	4B\	.	-tur	.	.	.	.	.	.	.
=27-	=27	=27	=27	=27	=27	=27	=27	=27	=27	=27	=27
2A\	ter-	2A\	.	ter-	2rF	.	2f#X\	Sal-	.	2cc\]	.
2G\	-ra	2G\	.	-ra	2G/	et	[<2g\	-va-	.	2b\	.
*	*Xij	*	*	*	*	*	*	*	*	*	*
!	!	!	!	!	!	!	!	!	!	!LO:LB:g=original	!
=28	=28	=28	=28	=28	=28	=28	=28	=28	=28	=28	=28
1r	.	1rD	.	.	2.d\	ger-	2g\]	.	.	1a	-to-
.	.	.	.	.	.	.	2f#X\	.	.	.	.
.	.	.	.	.	4c\	-mi-	.	.	.	.	.
=29-	=29	=29	=29	=29	=29	=29	=29	=29	=29	=29	=29
2r	.	2rBB	.	.	2B\	-net	2g\	-to-	.	2dd\	.
1G	et	[<2G\	.	et	4d\	Sal-	2b\	.	.	2b\	.
.	.	.	.	.	4d\	-va-	.	.	.	.	.
=30-	=30	=30	=30	=30	=30	=30	=30	=30	=30	=30	=30
.	.	2G\]	.	.	2c\	-to-	1a	.	.	2cc\	.
*custos:G	*	*	*	*	*	*	*	*	*	*	*
[<2Fn\	ger-	[<2F\	.	ger-	2d\	.	.	.	.	2a,<\	-rem
!LO:LB:g=original	!	!	!	!	!	!	!	!	!	!	!
=31	=31	=31	=31	=31	=31	=31	=31	=31	=31	=31	=31
!LO:N:xstem:cue	!	!LO:N:xstem:cue	!	!	!	!	!	!	!	!	!
!LO:TX:a:t=P:problem=brak zakończenia ligatury	!	!	!	!	!	!	!	!	!	!	!
4F\]	.	4F\]	.	.	2B,<\	-rem	1g	.	.	2b\	Sal-
4F\	-mi-	4F\	.	-mi-	.	.	.	.	.	.	.
2E\	-net	2E\	.	-net	[<2c\	et	.	.	.	2ee\	-va-
=32	=32	=32	=32	=32	=32	=32	=32	=32	=32	=32	=32
4F\	Sal-	4F\	.	Sal-	2c\]	.	2fn\	.	.	[<1dd	-to-
4F\	-va-	4F\	.	-va-	.	.	.	.	.	.	.
2G\	-to-	4G\	.	-to-	[<2g\	ger-	4e\	.	.	.	.
.	.	4GG/	.	.	.	.	4d\	.	.	.	.
=33-	=33	=33	=33	=33	=33	=33	=33	=33	=33	=33	=33
!	!	!	!	!	!LO:N:xstem:cue	!	!	!	!	!	!
1C	-rem	1C	.	-rem	4g\]	.	2e\	.	.	2dd\]	.
.	.	.	.	.	4f\	-mi-	.	.	.	.	.
.	.	.	.	.	2e\	-net	4a\	.	.	[<2cc\	.
.	.	.	.	.	.	.	4g\	.	.	.	.
!	!	!	!	!	!LO:LB:g=original	!	!	!	!	!	!
=34	=34	=34	=34	=34	=34	=34	=34	=34	=34	=34	=34
2rBB	.	2rBB	.	.	4d\	Sal-	2f#X\	.	.	2cc\]	.
.	.	.	.	.	4d\	-va-	.	.	.	.	.
2GG/	et	2GG/	.	et	2G/	-to-	[<2g\	.	.	2b\	.
=35	=35	=35	=35	=35	=35	=35	=35	=35	=35	=35	=35
2.D/	ger-	2.D/	.	ger-	2A/	-rem	2g\]	.	.	[<1a	.
.	.	.	.	.	2rF	.	2f#X\	.	.	.	.
4C/	-mi-	4C/	.	-mi-	.	.	.	.	.	.	.
!	!	!LO:LB:g=original	!	!	!	!	!	!	!	!	!
=36	=36	=36	=36	=36	=36	=36	=36	=36	=36	=36	=36
!	!	!LO:TX:t=P:global:problem=rozdzielacz słów	!	!	!	!	!	!	!	!	!
2BB,</	-net	2BB,</	.	-net	2rF	.	2b\	.	.	2a\]	.
4E\	Sal-	4E\	.	Sal-	2G/	et	2e\	.	.	[2g/	.
4E\	-va-	4E\	.	-va-	.	.	.	.	.	.	.
!	!	!	!	!	!	!	!LO:LB:g=original	!	!	!	!
=37	=37	=37	=37	=37	=37	=37	=37	=37	=37	=37	=37
1D	-to-	1D	.	-to-	2.d\	ger-	1a	.	.	2g/]	.
.	.	.	.	.	.	.	.	.	.	2f#X/	.
.	.	.	.	.	4c\	-mi-	.	.	.	.	.
=38-	=38	=38	=38	=38	=38	=38	=38	=38	=38	=38	=38
2GG,</	-rem	2GG/	.	-rem	2B\	-net	1g	-rem	.	2g/	-rem
4G\	Sal-	4G\	.	Sal-	[<2d\	Sal-	.	.	.	2re	.
4F\	-va-	4F\	.	-va-	.	.	.	.	.	.	.
=39	=39	=39	=39	=39	=39	=39	=39	=39	=39	=39	=39
(2E\	-to-	2E\	.	-to-	2d\]	.	2r	.	.	2g/	et
2A\)	.	2A\	.	.	2c\	-va-	2c/	et	.	[<2cc\	ger-
!	!	!	!	!	!	!	!	!	!	!LO:LB:g=original	!
=40-	=40	=40	=40	=40	=40	=40	=40	=40	=40	=40	=40
1G	.	1G	.	.	2d\	-to-	2.g\	ger-	.	2cc\]	.
.	.	.	.	.	2d\	-rem	.	.	.	[<2b\	.
.	.	.	.	.	.	.	4f\	-mi-	.	.	.
=41	=41	=41	=41	=41	=41	=41	=41	=41	=41	=41	=41
2C/	-rem	2C/	.	-rem	2r	.	1e	-net	.	2b\]	.
2rBB	.	2rBB	.	.	[<2c\	et	.	.	.	4a\	.
.	.	.	.	.	.	.	.	.	.	4g\	.
=42	=42	=42	=42	=42	=42	=42	=42	=42	=42	=42	=42
!LO:TX:t=1.	!	!	!	!	!	!	!	!	!	!	!
1r	.	1rD	.	.	2c\]	.	2d\	Sal-	.	4.f#X/	.
.	.	.	.	.	.	.	.	.	.	8f#/	-mi-
.	.	.	.	.	[2B\	ger-	2g\	-va-	.	2d/	-net
=43-	=43	=43	=43	=43	=43	=43	=43	=43	=43	=43	=43
2r	.	2r	.	.	2B\]	.	2e\	-to-	.	2re	.
1c	et	[<2c\	.	et	2A/	.	2a\	.	.	2cc\	et
=44-	=44	=44	=44	=44	=44	=44	=44	=44	=44	=44	=44
.	.	2c\]	.	.	2.G/	.	[<1d	.	.	2.gg\	ger-
4.B\	ger-	4.B\	.	ger-	.	.	.	.	.	.	.
.	.	.	.	.	4G/	-mi-	.	.	.	4ff\	-mi-
8B\	-mi-	8B\	.	-mi-	.	.	.	.	.	.	.
!LO:LB:g=original	!	!	!	!	!LO:LB:g=original	!	!	!	!	!	!
=45	=45	=45	=45	=45	=45	=45	=45	=45	=45	=45	=45
2c,<\	-net	2c,\	.	-net	1C	-net	2d\]	.	.	(4ee\	-net
.	.	.	.	.	.	.	.	.	.	4cc\)	.
2C/	et	2C/	.	et	.	.	[<2c\	.	.	[<2ee\	Sal-
=46	=46	=46	=46	=46	=46	=46	=46	=46	=46	=46	=46
2.G\	ger-	2.G\	.	ger-	2rF	.	2c/]	.	.	2ee\]	.
.	.	.	.	.	[2G/	et	2B/	-rem	.	[<2dd\	-va-
4F\	-mi-	4F\	.	-mi-	.	.	.	.	.	.	.
=47	=47	=47	=47	=47	=47	=47	=47	=47	=47	=47	=47
2E,<\	-net	2E\	.	-net	2G/]	.	2r	.	.	2dd\]	.
!	!	!LO:LB:g=original	!	!	!	!	!	!	!	!	!
4A\	Sal-	4A\	.	Sal-	[<2c\	ger-	2c/	et	.	2cc\	.
4A\	-va-	4A\	.	-va-	.	.	.	.	.	.	.
=48	=48	=48	=48	=48	=48	=48	=48	=48	=48	=48	=48
!	!	!LO:TX:t=P:problem=skreślony fragment	!	!	!	!	!	!	!	!	!
2G\	-to-	1G	.	-to-	4.c\]	.	2.g\	ger-	.	[<1dd	-to-
.	.	.	.	.	8c\	-mi-	.	.	.	.	.
2GG/	.	.	.	.	2B\	-net	.	.	.	.	.
.	.	.	.	.	.	.	4f\	-mi-	.	.	.
=49-	=49	=49	=49	=49	=49	=49	=49	=49	=49	=49	=49
1C	.	1C	.	.	2e\	Sal-	2e\	-net	.	2dd\]	.
.	.	.	.	.	2e\	-va-	4e\	Sal-	.	2cc\	.
.	.	.	.	.	.	.	4f\	-va-	.	.	.
!	!	!	!	!	!	!	!	!	!	!LO:LB:g=original	!
=50	=50	=50	=50	=50	=50	=50	=50	=50	=50	=50	=50
2GG/	.	2GG/	.	.	2d\	-to-	[<1g	-to-	.	2b\	.
2C/	.	2C/	.	.	2c\	.	.	.	.	[<2cc\	.
=51-	=51	=51	=51	=51	=51	=51	=51	=51	=51	=51	=51
2G\	.	1GG	.	.	1d	.	1g_<	.	.	2cc\]	.
2GG/	.	.	.	.	.	.	.	.	.	2b\	.
=52	=52	=52	=52	=52	=52	=52	=52	=52	=52	=52	=52
!LO:N:vis=0	!	!	!	!	!	!	!LO:N:vis=2	!	!	!	!
1C;	-rem.	1C	.	-rem	1e;<	-rem.	1g]	-rem	.	1cc	-rem.
!	!	!LO:LB:g=original	!	!	!	!	!LO:LB:g=original	!	!	!	!
=53||	=53||	=53||	=53||	=53||	=53||	=53||	=53||	=53||	=53||	=53||	=53||
*>B	*	*>B	*	*	*>B	*	*>B	*	*	*>B	*
*M2/2	*	*M2/2	*	*	*M2/2	*	*M2/2	*	*	*M2/2	*
*met(c|)	*	*met(c|)	*	*	*met(c|)	*	*met(c|)	*	*	*met(c|)	*
00r	.	00r	.	.	1rA	.	2r	.	.	00r	.
.	.	.	.	.	.	.	2c/	Be-	.	.	.
=54	=54	=54	=54	=54	=54	=54	=54	=54	=54	=54	=54
.	.	.	.	.	2rF	.	2g\	-ne-	.	.	.
.	.	.	.	.	2G/	Be-	2g\	-di-	.	.	.
!	!	!	!	!	!LO:LB:g=original	!	!	!	!	!	!
=55	=55	=55	=55	=55	=55	=55	=55	=55	=55	=55	=55
.	.	.	.	.	2c\	-ne-	2e\	-xi-	.	.	.
.	.	.	.	.	2c\	-di-	2g\	-ſti	.	.	.
=56	=56	=56	=56	=56	=56	=56	=56	=56	=56	=56	=56
.	.	.	.	.	2A/	-xi-	4.f\	Do-	.	.	.
.	.	.	.	.	.	.	8f\	-mi-	.	.	.
.	.	.	.	.	[<2c\	-sti	2e\	-ne	.	.	.
=57	=57	=57	=57	=57	=57	=57	=57	=57	=57	=57	=57
0r	.	0rD	.	.	2c,<\]	.	2.d\	ter-	.	2re	.
.	.	.	.	.	[<2B\	Do-	.	.	.	2g/	Be-
.	.	.	.	.	.	.	8e\L	.	.	.	.
.	.	.	.	.	.	.	8d\J	.	.	.	.
=58	=58	=58	=58	=58	=58	=58	=58	=58	=58	=58	=58
.	.	.	.	.	2B\]	.	4c\	.	.	2cc\	-ne-
.	.	.	.	.	.	.	4d\	.	.	.	.
.	.	.	.	.	2A/	.	4e\	.	.	2cc\	-di-
.	.	.	.	.	.	.	4f\	.	.	.	.
=59	=59	=59	=59	=59	=59	=59	=59	=59	=59	=59	=59
1r	.	1rD	.	.	1G	.	2.g\	.	.	2cc\	-xi-
.	.	.	.	.	.	.	.	.	.	2b\	-sti
.	.	.	.	.	.	.	4f\	-ram	.	.	.
=60	=60	=60	=60	=60	=60	=60	=60	=60	=60	=60	=60
2rBB	.	2rBB	.	.	[<1c	.	1e	tu-	.	4.cc\	Do-
.	.	.	.	.	.	.	.	.	.	8cc\	-mi-
2C/	Be-	2C/	.	Be-	.	.	.	.	.	2cc\	-ne
=61	=61	=61	=61	=61	=61	=61	=61	=61	=61	=61	=61
2G\	-ne-	2G\	.	-ne-	4.c\]	.	1d	-am	.	2r	.
.	.	.	.	.	8c\	-mi-	.	.	.	.	.
2G\	-di-	2G\	.	-di-	2B\	-ne	.	.	.	2g/	be-
!	!	!	!	!	!	!	!	!	!	!LO:LB:g=original	!
=62	=62	=62	=62	=62	=62	=62	=62	=62	=62	=62	=62
2E\	-xi-	2E\	.	-xi-	2e\	ter-	2rA	.	.	2cc\	-ne-
1G	-ſti	[<2G\	.	-sti	2d\	-ram	2G/	Be-	.	2b\	-di-
=63-	=63	=63	=63	=63	=63	=63	=63	=63	=63	=63	=63
.	.	2G,<\]	.	.	2c\	tu-	2c/	-ne-	.	2a\	-xi-
1F	Do-	[<2F\	.	Do-	4d\	.	2A/	-di-	.	2a\	-sti
.	.	.	.	.	4c\	.	.	.	.	.	.
=64-	=64	=64	=64	=64	=64	=64	=64	=64	=64	=64	=64
.	.	2F\]	.	.	2B,<\	-am	4B/	-xi-	.	4g/	Do-
.	.	.	.	.	.	.	4B/	-ſti	.	8g/	-mi-
.	.	.	.	.	.	.	.	.	.	8g/	-ne
2E\	.	2E\	.	.	2G/	be-	(2e\	Do-	.	[<2cc\	ter-
!LO:LB:g=original	!	!	!	!	!	!	!	!	!	!	!
=65	=65	=65	=65	=65	=65	=65	=65	=65	=65	=65	=65
2D\	.	2D/	.	.	2d\	-ne-	4.f\)	.	.	2cc\]	.
.	.	.	.	.	.	.	8f\	-mi-	.	.	.
!	!	!	!	!	!	!	!LO:LB:g=original	!	!	!	!
4G\	.	4.G\	.	.	2d\	-di-	2d\	-ne	.	2b\	-ram
4G\	mi-	.	.	.	.	.	.	.	.	.	.
.	.	8G\	.	-mi-	.	.	.	.	.	.	.
!	!	!	!	!	!LO:LB:g=original	!	!	!	!	!	!
=66-	=66	=66	=66	=66	=66	=66	=66	=66	=66	=66	=66
1C	-ne	1C,<	.	-ne	2.c\	-xi-	4e\	ter-	.	2cc\	tu-
.	.	.	.	.	.	.	4f\	-ra(m)	.	.	.
.	.	.	.	.	.	.	[<2g\	ter-	.	2cc\	-am
.	.	.	.	.	4B\	-ſti	.	.	.	.	.
=67	=67	=67	=67	=67	=67	=67	=67	=67	=67	=67	=67
1D	ter-	1D	.	ter-	4A\	(Do-	2g\]	.	.	0r	.
.	.	.	.	.	8A\	-mi)-	.	.	.	.	.
.	.	.	.	.	8A\	-ne	.	.	.	.	.
.	.	.	.	.	[<2d\	ter-	2f\	.	.	.	.
=68-	=68	=68	=68	=68	=68	=68	=68	=68	=68	=68	=68
2.E\	.	(2.E\	.	.	2d\]	.	1e	.	.	.	.
.	.	.	.	.	2c\	-ram	.	.	.	.	.
4F\	-ram	4F\)	.	-ram	.	.	.	.	.	.	.
=69	=69	=69	=69	=69	=69	=69	=69	=69	=69	=69	=69
1G	tu-	1G	.	tu-	2c\	tu-	[<1d	.	.	2g/	a-
.	.	.	.	.	2B\	.	.	.	.	2g/	-ver-
=70-	=70	=70	=70	=70	=70	=70	=70	=70	=70	=70	=70
1C	-am	1C	.	-am	1e	-am	2d\]	.	.	2e/	-ti-
.	.	.	.	.	.	.	[2c/	-ram	.	4e/	-sti
.	.	.	.	.	.	.	.	.	.	4f/	ca-
=71	=71	=71	=71	=71	=71	=71	=71	=71	=71	=71	=71
!	!	!	!	!	!	!	!	!	!	!LO:TX:t=P:problem=kreska taktowa pojedyncza	!
00r	.	00r	.	.	2rF	.	2c/]	.	.	2g/	-pti-
.	.	.	.	.	4G/	a-	2B/	tu-	.	2g/	-vi-
.	.	.	.	.	4G/	-ver-	.	.	.	.	.
=72-	=72	=72	=72	=72	=72	=72	=72	=72	=72	=72	=72
.	.	.	.	.	2E/	-ti-	2c/	-am	.	4c/	-ta-
.	.	.	.	.	.	.	.	.	.	4c,</	-tem
.	.	.	.	.	4E/	-ſti	2r	.	.	[<2cc\	Ja-
.	.	.	.	.	4F/	ca-	.	.	.	.	.
!	!	!	!	!	!	!	!	!	!	!LO:LB:g=original	!
=73-	=73	=73	=73	=73	=73	=73	=73	=73	=73	=73	=73
.	.	.	.	.	2G/	-pti-	2r	.	.	2cc\]	.
.	.	.	.	.	2G/	-vi-	4g\	a-	.	2b\	.
.	.	.	.	.	.	.	4g\	-ver-	.	.	.
=74-	=74	=74	=74	=74	=74	=74	=74	=74	=74	=74	=74
!	!	!	!	!	!LO:TX:t=P:problem=skreślony fragment	!	!	!	!	!	!
.	.	.	.	.	4C/	-ta-	2e\	-ti-	.	1ee	.
.	.	.	.	.	4C,</	-tem	.	.	.	.	.
.	.	.	.	.	[<2c\	Ja-	4e\	-ſti	.	.	.
.	.	.	.	.	.	.	4e\	ca-	.	.	.
!	!	!LO:LB:g=original	!	!	!	!	!	!	!	!	!
=75-	=75	=75	=75	=75	=75	=75	=75	=75	=75	=75	=75
2r	.	2rBB	.	.	2c\]	.	2f\	-pti-	.	1dd	.
4G\	a-	4G\	.	a-	[2B\	.	2g\	-vi-	.	.	.
4G\	-ver-	4G\	.	-ver-	.	.	.	.	.	.	.
=76	=76	=76	=76	=76	=76	=76	=76	=76	=76	=76	=76
2E\	-ti-	2E\	.	-ti-	2B\]	.	2c/	-ta-	.	[<1cc	.
4E,<\	-ſti	4E\	.	-sti	2A/	.	2c/	-tem	.	.	.
4F\	Ca-	4F\	.	ca-	.	.	.	.	.	.	.
=77	=77	=77	=77	=77	=77	=77	=77	=77	=77	=77	=77
2G\	-pti-	2G\	.	-pti-	1d	.	2r	.	.	2cc\]	.
2G\	-vi-	2G\	.	-vi-	.	.	2g\	Ca-	.	2b\	.
=78	=78	=78	=78	=78	=78	=78	=78	=78	=78	=78	=78
4C/	-ta-	4C/	.	-ta-	2c,<\	-cob	2.e\	-pti-	.	1cc	-cob
4C/	-tem	4C,</	.	-tem	.	.	.	.	.	.	.
*	*ij	*	*	*	*	*	*	*	*	*	*
2c\	Ca-	2c\	.	Ca-	2e\	Cap-	.	.	.	.	.
.	.	.	.	.	.	.	4f\	-vi-	.	.	.
!	!	!	!	!	!	!	!LO:PB:g=original	!	!	!	!
=79	=79	=79	=79	=79	=79	=79	=79	=79	=79	=79	=79
2B\	-pti-	2B\	.	-pti-	2d\	-ti-	1g	-ta-	.	1r	.
2G\	-vi-	2G\	.	-vi-	2B\	-vi-	.	.	.	.	.
!	!	!	!	!	!LO:PB:g=original	!	!	!	!	!	!
=80-	=80	=80	=80	=80	=80	=80	=80	=80	=80	=80	=80
!	!	!	!	!	!	!	!LO:TX:t=P:global:problem=kreska pionowa na różnych liniach [rozdzielacz słów / znak oddechu]	!	!	!	!
2A\	-ta-	2A\	.	-ta-	2c\	-ta-	2c,/	-tem	.	2r	.
2E,\	-tem	2E,<\	.	-tem	2e\	-tem	2g\	Ja-	.	2cc\	ca-
*	*Xij	*	*	*	*	*	*	*	*	*	*
=81	=81	=81	=81	=81	=81	=81	=81	=81	=81	=81	=81
2.F\	Ja-	(2.F\	.	Ja-	2A/	Ja-	1c	.	.	2.a\	-pti-
.	.	.	.	.	2F/	.	.	.	.	.	.
4E\	.	4E\)	.	.	.	.	.	.	.	4g\	-vi-
=82-	=82	=82	=82	=82	=82	=82	=82	=82	=82	=82	=82
2D/	.	2D/	.	.	2f\	.	2f\	.	.	4a\	-ta-
.	.	.	.	.	.	.	.	.	.	4b\	-tem
2C/	.	2C/	.	.	2e\	.	2g\	.	.	[<2cc\	Ja-
=83-	=83	=83	=83	=83	=83	=83	=83	=83	=83	=83	=83
1G	.	1G	.	.	1d	.	1g	.	.	2cc\]	.
.	.	.	.	.	.	.	.	.	.	2b\	.
=84-	=84	=84	=84	=84	=84	=84	=84	=84	=84	=84	=84
1C;	-cob.	1C	.	-cob.	1e	-cob.	1g;;	-cob	.	1cc	-cob.
!LO:LB:g=original	!	!LO:PB:g=original	!	!	!	!	!	!	!	!LO:PB:g=original	!
=85||	=85||	=85||	=85||	=85||	=85||	=85||	=85||	=85||	=85||	=85||	=85||
*>C	*	*>C	*	*	*>C	*	*>C	*	*	*>C	*
*M3/2	*	*M3/4	*	*	*M3/4	*	*M3/4	*	*	*M3/4	*
*rscale:2	*	*	*	*	*	*	*	*	*	*	*
!	!	!	!	!	!	!	!	!	!	!LO:TX:t=P:problem=brak 4 w oznaczeniu metrycznym	!
4.F\	Glo-	4.F\	.	Glo-	4.c\	Glo-	4.f\	Glo-	.	4.a\	Glo-
8F\	-ri-	8F\	.	-ri-	8c\	-ri-	8f\	-ri-	.	8a\	-ri-
4F\	-a	4F\	.	-a	4c\	-a	4f\	-a	.	4a\	-a
=86	=86	=86	=86	=86	=86	=86	=86	=86	=86	=86	=86
2C/	Pa-	2C/	.	Pa-	2c\	Pa-	2e\	Pa-	.	2g/	Pa-
4C/	-tri	4C/	.	-tri	4c\	-tri	4e\	-tri	.	4g/	-tri
=87	=87	=87	=87	=87	=87	=87	=87	=87	=87	=87	=87
4.A\	Glo-	4.AA/	.	glo-	4.c\	glo-	4.f\	glo-	.	4.a\	glo-
8G\	-ri-	8GG/	.	-ri-	8c\	-ri-	8g\	-ri-	.	8b-X\	-ri-
4F\	-a	4FF/	.	-a	4c\	-a	4a\	-a	.	4cc\	-a
=88	=88	=88	=88	=88	=88	=88	=88	=88	=88	=88	=88
4.c\	Fi-	4.C/	.	Fi-	4.c\	Fi-	4.e\	Fi-	.	4.g/	Fi-
8C/	-li-	8C/	.	-li-	8c\	-li-	8e\	-li-	.	8g/	-li-
4C/	-o	4C/	.	-o	4c\	-o	4e\	-o	.	4g/	-o
!	!	!	!	!	!LO:LB:g=original	!	!	!	!	!	!
=89	=89	=89	=89	=89	=89	=89	=89	=89	=89	=89	=89
4r	.	4r	.	.	4r	.	4r	.	.	4r	.
4A\	et	4A\	6	et	4c\	et	4f\	et	.	4a\	et
4A\	Spi-	4A\	.	Spi-	4c\	spi-	4f\	Spi-	.	4a\	Spi-
!	!	!	!	!	!	!	!LO:LB:g=original	!	!	!	!
=90	=90	=90	=90	=90	=90	=90	=90	=90	=90	=90	=90
4.B-X\	-ri-	4.B-X\	.	-ri-	4.d\	-ri-	4.d\	-ri-	.	4.f/	-ri-
8B-\	-tu-	8B-\	.	-tu-	8d\	-tu-	8e\	-tu-	.	8g/	-tu-
4A\	-i	4A\	6	-i	4c\	-i	4f\	-i	.	4a\	-i
=91	=91	=91	=91	=91	=91	=91	=91	=91	=91	=91	=91
4G\	San-	4G\	7	San-	(4d\	San-	(4f\	San-	.	8b-X\L	San-
.	.	.	.	.	.	.	.	.	.	8cc\	.
!	!	!	!	!	!	!	!	!	!	!LO:TX:t=P:problem=♭ above	!
2C/	.	2C/	.	.	2c\)	.	2e\)	.	.	8b-X\	.
.	.	.	.	.	.	.	.	.	.	8cc\	.
.	.	.	.	.	.	.	.	.	.	8b-X\	.
.	.	.	.	.	.	.	.	.	.	8cc\J	.
!LO:LB:g=original	!	!LO:LB:g=original	!	!	!	!	!	!	!	!	!
=92	=92	=92	=92	=92	=92	=92	=92	=92	=92	=92	=92
4F,<\	-cto	4F,<\	.	-cto	4c,<\	-cto	4f,<\	-cto	.	4a,<\	-cti
!	!	!	!	!	!	!	!	!	!	!LO:LB:g=original	!
8F\	Si-	8F\	.	Si-	8c\	Si-	8f\	Si-	.	8a\	Si-
8F\	-cut	8F\	.	-cut	8c\	-cut	8f\	-cut	.	8a\	-cut
8F\	e-	8F\	.	e-	8c\	e-	8f\	e-	.	8a\	e-
8F\	-rat	8F\	.	-rat	8c\	-rat	8f\	-rat	.	8a\	-rat
=93	=93	=93	=93	=93	=93	=93	=93	=93	=93	=93	=93
2D\	in	2D/	.	in	2d\	in	2f\	in	.	2a\	in
4D\	prin-	4D/	.	prin-	4d\	prin-	4f\	prin-	.	4a\	prin-
=94	=94	=94	=94	=94	=94	=94	=94	=94	=94	=94	=94
4.G\	-ci-	4.G\	.	-ci-	4.d\	-ci-	4.g\	-ci-	.	4.bn\	-ci-
8G\	-pi-	8G\	.	-pi-	8d\	-pi-	8g\	-pi-	.	8b\	-pi-
4G\	-o	4G\	.	-o	4d\	-o	4g\	-o	.	4b,<\	-o
=95	=95	=95	=95	=95	=95	=95	=95	=95	=95	=95	=95
4E,<\	et	4E\	6	et	4e\	et	4g\	et	.	4cc\	et
4D,<\	nunc	4D\	6\	nunc	4Bn\	Nunc	4f\	nunc	.	4dd\	nunc
4C/	et	4C\	.	et	4c\	et	4g\	et	.	4een\	et
=96	=96	=96	=96	=96	=96	=96	=96	=96	=96	=96	=96
4G\	sem-	4G\	.	sem-	4B\	sem-	4g\	Sem-	.	4dd\	sem-
4GG/	-per	4GG/	.	-per	4B\	-per	4g\	-per	.	4dd\	-per
4rBB	.	4r	.	.	4r	.	4r	.	.	4r	.
!	!	!	!	!	!LO:LB:g=original	!	!	!	!	!	!
=97	=97	=97	=97	=97	=97	=97	=97	=97	=97	=97	=97
(4G#X\	et	(4G#X\	6	et	2B\	et	(4e\	et	.	2ee\	et
4E\)	.	4E\)	.	.	.	.	4g#X\)	.	.	.	.
4G#\	in	4G#X\	.	in	4B\	in	4e\	in	.	4ee\	in
!LO:LB:g=original	!	!	!	!	!	!	!	!	!	!	!
=98	=98	=98	=98	=98	=98	=98	=98	=98	=98	=98	=98
4.A\	sae-	4.A\	.	sae-	4.A\	sae-	4.e\	Sae-	.	4.cc\	sae-
8A\	-cu-	8A\	.	-cu-	8A\	-cu-	8e\	-cu-	.	8cc\	-cu-
*	*	*	*	*	*	*	*	*	*	*custos:cc	*
4Gn\	-la	4Gn\	.	-la	4A\	-la	4e\	-la	.	4cc\	-la
!	!	!LO:LB:g=original	!	!	!	!	!LO:LB:g=original	!	!	!LO:LB:g=original	!
=99	=99	=99	=99	=99	=99	=99	=99	=99	=99	=99	=99
4.F\	sae-	4.F\	.	sae-	4.A\	sae-	4.f\	Sae-	.	4.cc\	sae-
8F\	-cu-	8F\	.	-cu-	8A\	-cu-	8f\	-cu-	.	8cc\	-cu-
4C/	-lo-	4C\	6	-lo-	4A\	-lo-	4e\	-lo-	.	4cc\	-lo-
=100	=100	=100	=100	=100	=100	=100	=100	=100	=100	=100	=100
4D\	-rum	4D\	6 5	-rum	4A\	-rum	4f\	-ru(m)	.	4b\	-rum
2E\	A-	2E\	.	a-	(4A\	a-	2e\	a-	.	2b\	a-
.	.	.	.	.	4G#X\)	.	.	.	.	.	.
=101	=101	=101	=101	=101	=101	=101	=101	=101	=101	=101	=101
!LO:TX:b:t=Rorate\nDa Capo.	!	!LO:TX:b:t=Rorate ùt supra.	!	!	!LO:TX:b:t=Rorate ūt supra	!	!LO:TX:b:t=Rorate ut Supra.\nLaus Deo	!	!	!LO:TX:b:t=Rorate\nut supra	!
2AA/	-men.	2AA/	#	-men	2A/	-men.	2e\	-men	.	2cc#X\	-men
!LO:TX:t=P:problem=oznaczenie metryczne c| po kresce taktowej	!	!	!	!	!	!	!	!	!	!	!
4r	.	4r	.	.	4r	.	4r;	.	.	4r	.
==	==	==	==	==	==	==	==	==	==	==	==
*-	*-	*-	*-	*-	*-	*-	*-	*-	*-	*-	*-
!!!system-decoration: [g1]g2
!!!RDF**kern: > = above
!!!RDF**kern: < = below
!!!ENC: Andrzej Kubiczek
!!!END: 2021-03-11
!!!ENC: Andrzej Kubiczek
!!!END: 2021-02-16
!!!YEC: Copyright 2022 Narodowy Instytut Fryderyka Chopina (https://polishscores.org)
!!!YEM: License CC-BY-4.0 (https://creativecommons.org/licenses/by/4.0)
